material/.icons/material/mailbox-open-up-outline.svg

<?xml version="1.0" encoding="UTF-8"?><!DOCTYPE svg PUBLIC "-//W3C//DTD SVG 1.1//EN" "http://www.w3.org/Graphics/SVG/1.1/DTD/svg11.dtd"><svg xmlns="http://www.w3.org/2000/svg" xmlns:xlink="http://www.w3.org/1999/xlink" version="1.1" id="mdi-mailbox-open-up-outline" width="24" height="24" viewBox="0 0 24 24"><path d="M14,12.85V6.85H18V8.85H16V12.85H14M18,3.85H8A5,5 0 0,0 3,8.85V17.85H1V19.85H21A2,2 0 0,0 23,17.85V8.85A5,5 0 0,0 18,3.85M11,17.85H5V8.85A3,3 0 0,1 8,5.85A3,3 0 0,1 11,8.85V17.85M21,17.85H13V8.85C13,7.76 12.65,6.71 12,5.85H18A3,3 0 0,1 21,8.85V17.85Z" /></svg>

<svg xmlns="http://www.w3.org/2000/svg" viewBox="0 0 24 24"><path d="M14 12.85v-6h4v2h-2v4h-2m4-9H8a5 5 0 00-5 5v9H1v2h20a2 2 0 002-2v-9a5 5 0 00-5-5m-7 14H5v-9a3 3 0 013-3 3 3 0 013 3v9m10 0h-8v-9c0-1.09-.35-2.14-1-3h6a3 3 0 013 3v9z"/></svg>
